flaticon/household/livingroom-2.svg

<svg xmlns="http://www.w3.org/2000/svg" width="32" height="32" viewBox="0 0 24 24">
    <path d="M 23.636719 14.589844 C 23.476562 14.398438 23.277344 14.25 23.058594 14.148438 C 22.925781 12.058594 21.191406 10.398438 19.070312 10.398438 L 13.695312 10.398438 C 13.113281 10.398438 12.535156 10.523438 12 10.757812 C 11.46875 10.523438 10.886719 10.398438 10.308594 10.398438 L 5.222656 10.398438 C 3.136719 10.398438 1.417969 12.003906 1.238281 14.046875 C 0.882812 14.132812 0.5625 14.335938 0.335938 14.636719 C 0.0273438 15.042969 -0.0742188 15.558594 0.0546875 16.023438 L 0.976562 20.574219 L 0.992188 20.628906 C 1.199219 21.210938 1.753906 21.597656 2.371094 21.597656 L 2.402344 21.597656 L 2.402344 24 L 4.289062 24 L 5.089844 21.597656 L 19.3125 21.597656 L 20.113281 24 L 22 24 L 22 21.589844 C 22.59375 21.535156 23.109375 21.121094 23.273438 20.539062 L 23.96875 15.933594 C 24.0625 15.457031 23.941406 14.96875 23.636719 14.589844 Z M 19.070312 11.199219 C 20.699219 11.199219 22.050781 12.425781 22.246094 14.003906 C 22.195312 14.007812 22.144531 14.019531 22.09375 14.027344 C 22.027344 14.035156 21.964844 14.042969 21.898438 14.058594 C 21.828125 14.074219 21.757812 14.097656 21.6875 14.121094 C 21.628906 14.140625 21.566406 14.160156 21.511719 14.183594 C 21.441406 14.214844 21.375 14.25 21.308594 14.289062 C 21.257812 14.316406 21.203125 14.34375 21.15625 14.375 C 21.089844 14.417969 21.027344 14.472656 20.964844 14.523438 C 20.925781 14.558594 20.878906 14.589844 20.839844 14.625 C 20.777344 14.6875 20.71875 14.757812 20.664062 14.824219 C 20.632812 14.859375 20.601562 14.890625 20.574219 14.929688 C 20.515625 15.011719 20.460938 15.101562 20.414062 15.195312 C 20.398438 15.222656 20.378906 15.246094 20.367188 15.277344 C 20.308594 15.394531 20.261719 15.515625 20.226562 15.644531 C 20.226562 15.652344 20.222656 15.65625 20.21875 15.664062 C 20.183594 15.800781 20.160156 15.941406 20.148438 16.085938 L 20.039062 17.597656 L 12.402344 17.597656 L 12.402344 11.464844 C 12.8125 11.292969 13.253906 11.199219 13.695312 11.199219 Z M 5.222656 11.199219 L 10.308594 11.199219 C 10.75 11.199219 11.191406 11.292969 11.601562 11.464844 L 11.601562 17.597656 L 4.082031 17.597656 L 3.84375 15.925781 C 3.824219 15.796875 3.792969 15.671875 3.753906 15.550781 C 3.742188 15.511719 3.722656 15.472656 3.707031 15.4375 C 3.675781 15.355469 3.644531 15.277344 3.605469 15.203125 C 3.582031 15.160156 3.558594 15.121094 3.53125 15.078125 C 3.492188 15.015625 3.449219 14.949219 3.402344 14.890625 C 3.371094 14.851562 3.339844 14.8125 3.304688 14.773438 C 3.257812 14.71875 3.207031 14.664062 3.152344 14.613281 C 3.113281 14.578125 3.078125 14.546875 3.039062 14.515625 C 2.980469 14.464844 2.917969 14.421875 2.851562 14.378906 C 2.8125 14.351562 2.773438 14.324219 2.734375 14.300781 C 2.660156 14.257812 2.582031 14.222656 2.503906 14.1875 C 2.46875 14.171875 2.433594 14.15625 2.398438 14.140625 C 2.28125 14.097656 2.164062 14.0625 2.042969 14.039062 C 2.222656 12.445312 3.578125 11.199219 5.222656 11.199219 Z M 2.371094 20.796875 C 2.097656 20.796875 1.855469 20.632812 1.753906 20.382812 L 0.832031 15.835938 C 0.765625 15.585938 0.8125 15.328125 0.96875 15.121094 C 1.128906 14.917969 1.363281 14.800781 1.621094 14.800781 C 2.335938 14.800781 2.949219 15.332031 3.050781 16.039062 L 3.574219 20.796875 Z M 3.714844 23.199219 L 3.203125 23.199219 L 3.203125 21.597656 L 4.246094 21.597656 Z M 5.355469 20.796875 L 4.386719 20.796875 L 4.171875 18.398438 L 19.996094 18.398438 L 19.886719 20.796875 Z M 21.199219 23.199219 L 20.6875 23.199219 L 20.15625 21.597656 L 21.199219 21.597656 Z M 23.179688 15.792969 L 22.5 20.339844 C 22.410156 20.613281 22.15625 20.800781 21.871094 20.800781 L 20.691406 20.800781 L 20.945312 16.140625 C 21 15.390625 21.632812 14.800781 22.386719 14.800781 C 22.632812 14.800781 22.863281 14.910156 23.015625 15.097656 C 23.171875 15.285156 23.230469 15.53125 23.179688 15.792969 Z M 23.179688 15.792969"/>
    <path d="M5.71875 15.882812C5.796875 15.960938 5.898438 16 6.003906 16 6.105469 16 6.207031 15.960938 6.285156 15.882812L6.652344 15.515625C6.824219 15.597656 7.011719 15.648438 7.203125 15.648438 7.390625 15.648438 7.578125 15.597656 7.75 15.515625L8.117188 15.882812C8.195312 15.960938 8.300781 16 8.402344 16 8.503906 16 8.605469 15.960938 8.683594 15.882812 8.839844 15.726562 8.839844 15.472656 8.683594 15.316406L8.316406 14.949219C8.488281 14.601562 8.488281 14.195312 8.316406 13.851562L8.683594 13.480469C8.839844 13.324219 8.839844 13.074219 8.683594 12.917969 8.527344 12.761719 8.277344 12.761719 8.117188 12.917969L7.75 13.285156C7.40625 13.113281 7 13.113281 6.652344 13.285156L6.285156 12.917969C6.128906 12.761719 5.875 12.761719 5.71875 12.917969 5.5625 13.074219 5.5625 13.324219 5.71875 13.480469L6.085938 13.851562C5.917969 14.195312 5.917969 14.601562 6.085938 14.949219L5.71875 15.316406C5.5625 15.472656 5.5625 15.726562 5.71875 15.882812zM7.519531 14.082031C7.695312 14.257812 7.695312 14.542969 7.519531 14.714844 7.34375 14.890625 7.058594 14.890625 6.886719 14.714844 6.710938 14.542969 6.710938 14.257812 6.886719 14.082031 6.972656 13.996094 7.085938 13.953125 7.203125 13.953125 7.316406 13.953125 7.429688 13.996094 7.519531 14.082031zM15.316406 15.882812C15.394531 15.960938 15.5 16 15.601562 16 15.703125 16 15.804688 15.960938 15.882812 15.882812L16.25 15.515625C16.425781 15.597656 16.613281 15.648438 16.800781 15.648438 16.988281 15.648438 17.175781 15.597656 17.351562 15.515625L17.71875 15.882812C17.796875 15.960938 17.898438 16 18 16 18.101562 16 18.207031 15.960938 18.285156 15.882812 18.441406 15.726562 18.441406 15.472656 18.285156 15.316406L17.914062 14.949219C18.085938 14.601562 18.085938 14.195312 17.914062 13.851562L18.285156 13.480469C18.441406 13.324219 18.441406 13.074219 18.285156 12.917969 18.128906 12.761719 17.875 12.761719 17.71875 12.917969L17.351562 13.285156C17.003906 13.113281 16.597656 13.113281 16.25 13.285156L15.882812 12.917969C15.726562 12.761719 15.472656 12.761719 15.316406 12.917969 15.160156 13.074219 15.160156 13.324219 15.316406 13.480469L15.6875 13.851562C15.515625 14.195312 15.515625 14.601562 15.6875 14.949219L15.316406 15.316406C15.160156 15.472656 15.160156 15.726562 15.316406 15.882812zM17.117188 14.082031C17.292969 14.257812 17.292969 14.542969 17.117188 14.714844 16.941406 14.890625 16.660156 14.890625 16.484375 14.714844 16.308594 14.542969 16.308594 14.257812 16.484375 14.082031 16.570312 13.996094 16.6875 13.953125 16.800781 13.953125 16.914062 13.953125 17.03125 13.996094 17.117188 14.082031zM8.800781 8.398438L10.800781 8.398438 10.800781 7.199219 20 7.199219 20 8.398438 22 8.398438 22 7.199219 23.199219 7.199219 23.199219 4.800781 22 4.800781 22 .800781 20.402344.800781 20.402344 0 18 0 18 1.199219 16.863281 1.199219C16.691406 1.199219 16.53125 1.285156 16.433594 1.433594L14.191406 4.792969C14.191406 4.796875 14.191406 4.796875 14.1875 4.800781L7.601562 4.800781 7.601562 7.199219 8.800781 7.199219zM10 7.601562L9.601562 7.601562 9.601562 7.199219 10 7.199219zM21.199219 7.601562L20.800781 7.601562 20.800781 7.199219 21.199219 7.199219zM21.199219 1.601562L21.199219 4.800781 20.402344 4.800781 20.402344 1.601562zM18.800781.800781L19.601562.800781 19.601562 4.800781 18.800781 4.800781zM18 4.800781L16.75 4.800781 18 2.921875zM17.015625 2L17.652344 2 15.785156 4.800781 15.148438 4.800781zM8.402344 6.402344L8.402344 5.601562 22.398438 5.601562 22.398438 6.402344zM8.402344 6.402344"/>
</svg>

<svg xmlns="http://www.w3.org/2000/svg" width="32" height="32" viewBox="0 0 24 24">
    <path d="M23.637 14.59c-.16-.192-.36-.34-.578-.442a4.004 4.004 0 0 0-3.989-3.75h-5.375c-.582 0-1.16.125-1.695.36a4.215 4.215 0 0 0-1.691-.36H5.223a4.006 4.006 0 0 0-3.985 3.649c-.355.086-.675.289-.902.59-.309.406-.41.922-.281 1.386l.922 4.551.015.055c.207.582.762.969 1.38.969h.03V24H4.29l.8-2.402h14.224l.8 2.402H22v-2.41a1.463 1.463 0 0 0 1.273-1.05l.696-4.606a1.634 1.634 0 0 0-.332-1.344zM19.07 11.2a3.207 3.207 0 0 1 3.176 2.804c-.05.004-.101.016-.152.023a1.692 1.692 0 0 0-.407.094c-.058.02-.12.04-.175.063-.07.03-.137.066-.203.105-.051.027-.106.055-.153.086-.066.043-.129.098-.191.148-.04.036-.086.067-.125.102a2.788 2.788 0 0 0-.176.2c-.031.034-.062.066-.09.105a1.996 1.996 0 0 0-.16.265c-.016.028-.035.051-.047.082a1.981 1.981 0 0 0-.14.368c0 .007-.004.011-.008.02a2.503 2.503 0 0 0-.07.42l-.11 1.513h-7.637v-6.133c.41-.172.852-.266 1.293-.266zm-13.847 0h5.086c.441 0 .882.093 1.293.265v6.133h-7.52l-.238-1.672a2.385 2.385 0 0 0-.09-.375c-.012-.04-.031-.078-.047-.114a2.118 2.118 0 0 0-.102-.234 2.098 2.098 0 0 0-.074-.125 1.996 1.996 0 0 0-.226-.305 1.951 1.951 0 0 0-.453-.394 2.034 2.034 0 0 0-.118-.078c-.074-.043-.152-.078-.23-.114l-.106-.046a2.299 2.299 0 0 0-.355-.102 3.205 3.205 0 0 1 3.18-2.84zM2.37 20.796a.664.664 0 0 1-.617-.414l-.922-4.547a.821.821 0 0 1 .137-.715.823.823 0 0 1 .652-.32 1.45 1.45 0 0 1 1.43 1.238l.523 4.758zm1.344 2.402h-.512v-1.601h1.043zm1.64-2.402h-.968l-.215-2.399h15.824l-.11 2.399zM21.2 23.199h-.512l-.53-1.601h1.042zm1.98-7.406L22.5 20.34a.666.666 0 0 1-.629.46h-1.18l.254-4.66c.055-.75.688-1.34 1.442-1.34.246 0 .476.11.629.298a.819.819 0 0 1 .164.695zm0 0"/>
    <path d="M5.719 15.883a.399.399 0 0 0 .566 0l.367-.367c.172.082.36.132.551.132.188 0 .375-.05.547-.132l.367.367a.405.405 0 0 0 .285.117.4.4 0 0 0 .281-.684l-.367-.367a1.233 1.233 0 0 0 0-1.097l.368-.372a.396.396 0 0 0 0-.562.4.4 0 0 0-.567 0l-.367.367a1.233 1.233 0 0 0-1.098 0l-.367-.367a.4.4 0 0 0-.566 0 .396.396 0 0 0 0 .562l.367.372c-.168.343-.168.75 0 1.097l-.367.367a.4.4 0 0 0 0 .567zm1.8-1.801a.446.446 0 0 1 0 .633.446.446 0 0 1-.632 0 .446.446 0 0 1 .316-.762c.113 0 .227.043.317.129zm0 0M15.316 15.883a.405.405 0 0 0 .286.117c.101 0 .203-.04.28-.117l.368-.367c.176.082.363.132.55.132.188 0 .376-.05.552-.132l.367.367c.078.078.18.117.281.117a.4.4 0 0 0 .285-.684l-.37-.367a1.233 1.233 0 0 0 0-1.097l.37-.372a.396.396 0 0 0 0-.562.4.4 0 0 0-.566 0l-.367.367a1.241 1.241 0 0 0-1.102 0l-.367-.367a.4.4 0 0 0-.567 0 .396.396 0 0 0 0 .562l.371.372c-.171.343-.171.75 0 1.097l-.37.367a.4.4 0 0 0 0 .567zm1.801-1.801a.446.446 0 0 1 0 .633.446.446 0 0 1-.633 0 .446.446 0 0 1 .317-.762.45.45 0 0 1 .316.129zm0 0M8.8 8.398h2V7.2H20v1.2h2v-1.2h1.2V4.801H22v-4h-1.598V0H18v1.2h-1.137a.513.513 0 0 0-.43.234l-2.242 3.359c0 .004 0 .004-.004.008H7.603v2.398H8.8zm1.2-.796h-.398v-.403H10zm11.2 0h-.4v-.403h.4zm0-6V4.8h-.798V1.6zM18.8.8h.802v4H18.8zm-.8 4h-1.25L18 2.92zM17.016 2h.636l-1.867 2.8h-.637zM8.402 6.402v-.8h13.996v.8zm0 0"/>
</svg>
